X:1
T:Snohomish, LM
T:Snohomish, LM
T:Samuel Sebastian Wesley (1810-1876)
T:Public Domain Courtesy of the Cyber Hymnal™
C:Samuel Sebastian Wesley (1810-1876)
Z:Public Domain
Z:Courtesy of the Cyber Hymnal™
%%score ( 1 2 ) ( 3 4 )
L:1/8
Q:1/4=105
M:4/4
K:E
V:1 treble 
V:2 treble 
V:3 bass 
V:4 bass 
V:1
 [DB]2 | [B,G]2 [Ce]2 [EB]2 (AG) | [EG]2 [DF]2 E2 [EA]2 | [EG]2 [Ec]2 [EB]2 E2 | %4
 [FA]2 [EG]2 [DF]2 [DB]2 | [Ec]2 [Fd]2 [Ee]2 [EG]2 | [EA]2 [EB]2 [Ec]2 [EB]2 | %7
 [DA]2 [EG]2 [EF]2 (GA) | [EG]2 [DF]2 !fermata!E2 |] %9
V:2
 x2 | x6 E2 | x4 E2 x2 | x6 E2 | x8 | x8 | x8 | x6 E2 | x4 E2 |] %9
V:3
 [B,,F,]2 | [E,G,]2 [C,G,]2 [G,,B,]2 [A,,C]2 | [B,,B,]2 (B,A,) [E,G,]2 [C,A,]2 | %3
 [B,,B,]2 [A,,E,]2 [G,,B,]2 [C,G,]2 | [D,B,]2 [E,B,]2 [B,,B,]2 B,2 | B,2 [A,B,]2 [G,B,]2 [E,=D]2 | %6
 [F,C]2 [G,B,]2 A,2 [G,B,]2 | [F,B,]2 [E,B,]2 [A,,C]2 [C,A,]2 | [B,,B,]2 (B,A,) !fermata![E,G,]2 |] %9
V:4
 x2 | x8 | x2 B,,2 x4 | x8 | x6 B,2 | B,2 x6 | x4 A,2 x2 | x8 | x2 B,,2 x2 |] %9

